icon-themes/breeze_svg/cmd/lc_datainrows.svg

<svg viewBox="0 0 24 24" xmlns="http://www.w3.org/2000/svg">
  <path
     style="fill:#4d4d4d"
     d="m 4,4 v 1 14 1 h 1 14 1 V 5 4 Z m 6,1 h 4 V 6 7 H 10 V 6 Z m 5,0 h 4 V 7 H 16 15 V 6 Z m -5,3 h 4 v 1 1 H 10 V 9 Z m 5,0 h 4 v 1 1 H 15 V 9 Z m -5,3 h 4 v 2 h -4 z m 5,0 h 4 v 2 h -4 z m -5,3 h 4 v 2 h -4 v -1 z m 5,0 h 4 v 1 1 h -4 v -1 z m -5,3 h 4 v 2 h -4 z m 5,0 h 4 v 2 h -4 z"
     />
</svg>

<svg xmlns="http://www.w3.org/2000/svg" viewBox="0 0 24 24">
 <path 
     style="fill:#4d4d4d" 
     d="M 4 4 L 4 5 L 4 19 L 4 20 L 5 20 L 19 20 L 20 20 L 20 5 L 20 4 L 4 4 z M 10 5 L 14 5 L 14 6 L 14 7 L 10 7 L 10 6 L 10 5 z M 15 5 L 19 5 L 19 7 L 16 7 L 15 7 L 15 6 L 15 5 z M 10 8 L 14 8 L 14 9 L 14 10 L 10 10 L 10 9 L 10 8 z M 15 8 L 19 8 L 19 9 L 19 10 L 15 10 L 15 9 L 15 8 z M 10 11 L 14 11 L 14 13 L 10 13 L 10 11 z M 15 11 L 19 11 L 19 13 L 15 13 L 15 11 z M 10 14 L 14 14 L 14 16 L 10 16 L 10 15 L 10 14 z M 15 14 L 19 14 L 19 15 L 19 16 L 15 16 L 15 15 L 15 14 z M 10 17 L 14 17 L 14 19 L 10 19 L 10 17 z M 15 17 L 19 17 L 19 19 L 15 19 L 15 17 z "
     />
 </svg>
